X: 20380
T: John D. Burgess
R: jig
M: 6/8
K: Dmajor
f3 g>fe|d3 A3|d2 e f2 a|a>gf e2 A|
f3 gfe|d3 c2 B|Adf aAg|f2 e d2:|
f2 d e2 B|d>cB A3|d2 e f2 a|a>gf e2 A|
[1 f2 d e2 B|d>cB A3|Adf aAg|f2e d2:|
[2 f3 g>fe|d3 d>cB|Adf aAg|f2 e d2||
A>df a2 g|f>de f3|A>ce g2 f|e>Bc d>cB|
A>df a2 g|fde f2 B|Adf aAg|1 f/e/f e d2:|2 f2 e dfg||
|:aAa a2 g|f3 A3|d2 e f2 a|
[1 a>gf efg|aAa a2 g|f3 d>cB|Adf aAg|f2 e dfg:|
[2 a>gf e2 A|f3 g>fe|d3 d>cB|Adf aAg|f2 e d2||

